Breeze/svg/22/browser_root.svg

<svg xmlns="http://www.w3.org/2000/svg" viewBox="0 0 22 22">
  <defs id="defs3051">
    <style type="text/css" id="current-color-scheme">
      .ColorScheme-Text {
        color:#232629;
      }
      </style>
  </defs>
 <path 
    style="fill:currentColor;fill-opacity:1;stroke:none" 
	d="m11 3l-.707031.707031-7.292969 7.292969.707031.707031.292969-.292969v7.585938h1 5 3 5v-1-6.585938l.292969.292969.707031-.707031-3-3v-3h-3l-1.292969-1.292969-.707031-.707031m0 1.414063l6 5.999999v7.585938h-4v-5h-3-1v5h-4v-7.585938l6-5.999999"
    class="ColorScheme-Text"
    />  
</svg>

<svg xmlns="http://www.w3.org/2000/svg" viewBox="0 0 22 22">
  <defs id="defs3051">
    <style type="text/css" id="current-color-scheme">
      .ColorScheme-Text {
        color:#232629
      }
      </style>
  </defs>
    <path
       style="fill:currentColor"
       d="M 11,3 10.3,3.7 3,11 3.7,11.7 4,11.4 4,19 l 1,0 5,0 3,0 5,0 0,-1 0,-6.6 0.3,0.3 L 19,11 17,9 16.3,9.7 17,10.4 17,18 l -4,0 0,-5 -3,0 -1,0 0,5 -4,0 0,-7.6 6,-6 1.3,1.3 L 13,5 11.7,3.7 Z m 3,2 0,3 2,0 0,-3 z"
       class="ColorScheme-Text" />
</svg>
